X: 13
T:Duncan Gray,Fragment. HS.13
M:2/4
Q:70
C:previous page missing
S:Henry Stables MS,Cumbria,late19thC
R:misc
O:Walthwaite,nr.Ambleside.
A:England
Z:vmp.Chris Partington
K:C
"continued"G,C B,C|DEB,2|C2DC|ECC2|G,C B,C|DEB,2|C2DC|ECC2::!
EG GE|FFE2|FE DC|B,A,G,2|G(A/G/) F(G/F/)|E(F/E/) D2|C2DC|ECC2:||
